assets/Deer/Flat/deer_flat.svg

<svg width="32" height="32" viewBox="0 0 32 32" fill="none" xmlns="http://www.w3.org/2000/svg">
<path d="M7.99998 2.5C7.99998 2.22 8.21998 2 8.49998 2C8.77998 2 8.99998 2.22 8.99998 2.5V3.66C8.99998 3.87131 8.96502 4.0753 8.90007 4.26606L9.27003 4.2C9.69003 4.13 10 3.77 10 3.34V2.5C10 2.22 10.22 2 10.5 2C10.78 2 11 2.22 11 2.5V3.34C11 4.26 10.35 5.03 9.44003 5.19L8.60003 5.33C8.57003 5.34 8.54003 5.34 8.51003 5.34C8.38443 5.34 8.26704 5.29344 8.17794 5.21322C7.98069 5.34755 7.75527 5.44643 7.50998 5.5C7.45998 5.32 7.35998 5.15 7.21998 5C7.09998 4.86 6.97998 4.73 6.84998 4.6L7.26998 4.52C7.68998 4.45 7.99998 4.09 7.99998 3.66V2.5Z" fill="#7D4533"/>
<path d="M21 18.71V24.78C21 24.93 20.97 25.07 20.9 25.2L19.4412 28.9999H21.6459L23.7 25.42C23.89 25.1 24.01 24.82 24.01 24.48V18.71H21Z" fill="#D3883E"/>
<path d="M18.1429 28.9999H16.0966L15.44 26.63C15.4 26.47 15.29 26.33 15.15 26.25C14.51 25.88 14.04 25.27 13.85 24.56L13 21.01H15.99L18.1429 28.9999Z" fill="#D3883E"/>
<path d="M28.27 20.25L29.54 21.52C29.84 21.82 30 22.21 29.99 22.62V28.66C29.99 28.83 29.85 28.97 29.68 28.97H28.31C28.14 28.97 28 28.83 28 28.66V25.3C28 25.1 27.9 24.91 27.73 24.82L23.62 21.88C22.86 21.33 22.4 20.44 22.4 19.5L17.1033 19.643L13 21V23.84C13 24.58 12.7 25.29 12.18 25.81C12.07 25.93 12 26.08 12 26.25V28.67C12 28.84 11.86 28.98 11.69 28.98H10.31C10.14 28.98 10 28.84 10 28.67V20.97H9.74C8.46447 20.97 7.26955 20.4704 6.41797 19.6523L7.09851 14.7251L4.99 12H3.56C2.7 12 2 11.28 2 10.42C2 10.14 2.11 9.86997 2.31 9.65997L5.51 6.45997C5.82 6.14997 6.25 5.96997 6.7 5.96997H12.2C12.6 5.96997 12.84 6.42997 12.61 6.75997C12.09 7.49997 11.23 7.98997 10.25 7.98997H9.86L11.51 11C11.81 11.59 12.42 11.97 13.08 11.97H24V9C25.1 9 26 9.9 26 11V12.403C27.1891 13.032 28 14.2819 28 15.72V19.59C28 19.84 28.1 20.08 28.27 20.25Z" fill="#F3AD61"/>
<path d="M12 29.69V28H10V29.69C10 29.86 10.14 30 10.31 30H11.69C11.86 30 12 29.86 12 29.69Z" fill="#6D4534"/>
<path d="M16.69 29.99C16.52 29.99 16.35 29.94 16.31 29.77L15.82 28H17.88L18.31 29.62C18.36 29.78 18.29 30 18.09 30L16.69 29.99Z" fill="#6D4534"/>
<path d="M19.22 29.55L19.82 28H22.21L21.28 29.62C21.1 29.86 20.83 30 20.53 30H19.5C19.27 30 19.12 29.76 19.22 29.55Z" fill="#6D4534"/>
<path d="M30 28V29.69C30 29.86 29.86 30 29.68 30H28.31C28.14 30 28 29.86 28 29.69V28H30Z" fill="#6D4534"/>
<path d="M6 9.5C6 9.77614 5.77614 10 5.5 10C5.22386 10 5 9.77614 5 9.5C5 9.22386 5.22386 9 5.5 9C5.77614 9 6 9.22386 6 9.5Z" fill="#212121"/>
<path d="M3.06 11H2.1C2.04 10.83 2 10.64 2 10.44C2 10.28 2.03 10.14 2.1 10H3.02C3.66 10 3.7 10.96 3.06 11Z" fill="#212121"/>
<path d="M7.99999 12V17.01C7.99999 18.15 7.36999 19.14 6.42999 19.66C5.54999 18.79 4.99999 17.59 4.99999 16.26L4.98999 12H7.99999Z" fill="#FFDEA7"/>
<path d="M13 21V19L22.04 19C22.24 19 22.4 19.15 22.4 19.35V19.36C22.4 19.45 22.36 19.54 22.3 19.61C21.46 20.49 20.29 21 19.07 21H13Z" fill="#FFDEA7"/>
<path d="M13.5 2.02002C13.22 2.02002 13 2.24002 13 2.52002V3.04002C13 3.35002 12.78 3.62002 12.47 3.67002L8.36997 4.35002C8.02997 4.40002 7.72997 4.56002 7.49997 4.78002C7.26997 4.55002 6.96997 4.37002 6.62997 4.30002L6.04997 4.17002C5.70997 4.09002 5.46997 3.79002 5.46997 3.44002V3.50002C5.46997 3.22002 5.24997 3.00002 4.96997 3.00002C4.69997 3.00002 4.47997 3.21002 4.46997 3.47002C4.48997 4.28002 5.03997 4.97002 5.83997 5.14002L6.41997 5.27002C6.74997 5.35002 6.99997 5.65002 6.99997 6.00002V6.66002V7.00002C6.99997 7.28002 7.21997 7.50002 7.49997 7.50002C7.77997 7.50002 7.99997 7.28002 7.99997 7.00002V6.66002V6.00002V5.96002C7.99997 5.65002 8.21997 5.38002 8.52997 5.33002L12.63 4.65002C13.42 4.52002 14 3.84002 14 3.04002V2.52002C14 2.24002 13.78 2.02002 13.5 2.02002Z" fill="#6D4534"/>
</svg>

<svg xmlns="http://www.w3.org/2000/svg" width="32" height="32" fill="none"><path fill="#7D4533" d="M8 2.5c0-.28.22-.5.5-.5s.5.22.5.5v1.16c0 .211-.035.415-.1.606l.37-.066a.87.87 0 0 0 .73-.86V2.5c0-.28.22-.5.5-.5s.5.22.5.5v.84c0 .92-.65 1.69-1.56 1.85l-.84.14c-.03.01-.06.01-.09.01a.495.495 0 0 1-.332-.127 1.908 1.908 0 0 1-.668.287c-.05-.18-.15-.35-.29-.5-.12-.14-.24-.27-.37-.4l.42-.08A.87.87 0 0 0 8 3.66V2.5Z"/><path fill="#D3883E" d="M21 18.71v6.07c0 .15-.03.29-.1.42L19.441 29h2.205l2.054-3.58c.19-.32.31-.6.31-.94v-5.77H21ZM18.143 29h-2.046l-.657-2.37a.619.619 0 0 0-.29-.38c-.64-.37-1.11-.98-1.3-1.69L13 21.01h2.99L18.143 29Z"/><path fill="#F3AD61" d="m28.27 20.25 1.27 1.27c.3.3.46.69.45 1.1v6.04c0 .17-.14.31-.31.31h-1.37c-.17 0-.31-.14-.31-.31V25.3c0-.2-.1-.39-.27-.48l-4.11-2.94a2.951 2.951 0 0 1-1.22-2.38l-5.297.143L13 21v2.84c0 .74-.3 1.45-.82 1.97-.11.12-.18.27-.18.44v2.42c0 .17-.14.31-.31.31h-1.38c-.17 0-.31-.14-.31-.31v-7.7h-.26c-1.276 0-2.47-.5-3.322-1.318l.68-4.927L4.99 12H3.56C2.7 12 2 11.28 2 10.42c0-.28.11-.55.31-.76l3.2-3.2c.31-.31.74-.49 1.19-.49h5.5c.4 0 .64.46.41.79a2.88 2.88 0 0 1-2.36 1.23h-.39L11.51 11c.3.59.91.97 1.57.97H24V9c1.1 0 2 .9 2 2v1.403a3.75 3.75 0 0 1 2 3.317v3.87c0 .25.1.49.27.66Z"/><path fill="#6D4534" d="M12 29.69V28h-2v1.69c0 .17.14.31.31.31h1.38c.17 0 .31-.14.31-.31ZM16.69 29.99c-.17 0-.34-.05-.38-.22L15.82 28h2.06l.43 1.62c.05.16-.02.38-.22.38l-1.4-.01ZM19.22 29.55l.6-1.55h2.39l-.93 1.62c-.18.24-.45.38-.75.38H19.5c-.23 0-.38-.24-.28-.45ZM30 28v1.69c0 .17-.14.31-.32.31h-1.37c-.17 0-.31-.14-.31-.31V28h2Z"/><path fill="#212121" d="M6 9.5a.5.5 0 1 1-1 0 .5.5 0 0 1 1 0ZM3.06 11H2.1c-.06-.17-.1-.36-.1-.56 0-.16.03-.3.1-.44h.92c.64 0 .68.96.04 1Z"/><path fill="#FFDEA7" d="M8 12v5.01c0 1.14-.63 2.13-1.57 2.65A4.767 4.767 0 0 1 5 16.26L4.99 12H8ZM13 21v-2h9.04c.2 0 .36.15.36.35v.01c0 .09-.04.18-.1.25A4.48 4.48 0 0 1 19.07 21H13Z"/><path fill="#6D4534" d="M13.5 2.02c-.28 0-.5.22-.5.5v.52c0 .31-.22.58-.53.63l-4.1.68c-.34.05-.64.21-.87.43-.23-.23-.53-.41-.87-.48l-.58-.13a.749.749 0 0 1-.58-.73v.06c0-.28-.22-.5-.5-.5-.27 0-.49.21-.5.47.02.81.57 1.5 1.37 1.67l.58.13c.33.08.58.38.58.73v1c0 .28.22.5.5.5S8 7.28 8 7V5.96c0-.31.22-.58.53-.63l4.1-.68c.79-.13 1.37-.81 1.37-1.61v-.52c0-.28-.22-.5-.5-.5Z"/></svg>
